lib/brands/icons/dynamics-business-central.svg

<svg xmlns="http://www.w3.org/2000/svg" fill="none" aria-hidden="true" viewBox="0 0 48 48"><g id="dynamics-business-central-Icon"><g id="Group"><path id="Vector" fill="url(#paint0_linear_94_19202)" d="M23.3224 39.2718C31.7567 39.2718 38.594 32.4344 38.594 24.0001C38.594 15.5659 31.7567 8.72852 23.3224 8.72852C14.8881 8.72852 8.05078 15.5659 8.05078 24.0001C8.05078 32.4344 14.8881 39.2718 23.3224 39.2718Z"/><g id="Vector_2"><path fill="#BBE4ED" d="M27.2777 9.68056C27.2777 7.81281 25.7762 6.31128 23.9084 6.31128C22.0407 6.31128 20.5392 7.81281 20.5392 9.68056C20.5392 10.999 21.3082 12.1343 22.4069 12.6836V28.0651H25.41V12.6836C26.5086 12.1343 27.2777 10.999 27.2777 9.68056Z"/><path fill="#BBE4ED" d="M20.5392 38.3194C20.5392 40.1872 22.0407 41.6887 23.9084 41.6887C25.7762 41.6887 27.2777 40.1872 27.2777 38.3194C27.2777 37.001 26.5086 35.8657 25.41 35.3164V19.9349H22.4069V35.3164C21.3082 35.8657 20.5392 37.001 20.5392 38.3194Z"/><path fill="#BBE4ED" d="M9.36928 20.704C7.50153 20.704 6 22.2055 6 24.0732C6 25.941 7.50153 27.4425 9.36928 27.4425C10.6877 27.4425 11.823 26.6734 12.3723 25.5748H27.7538V22.5717H12.3723C11.823 21.473 10.6877 20.704 9.36928 20.704Z"/></g><g id="Vector_3" filter="url(#filter0_dd_94_19202)"><path fill="#00949B" d="M38.3745 22.5718H26.582V25.5748H38.3745V22.5718Z"/></g><g id="Vector_4" filter="url(#filter1_d_94_19202)"><path fill="#61C8D8" d="M23.9086 33.8147C29.2281 33.8147 33.5403 29.5025 33.5403 24.183C33.5403 18.8635 29.2281 14.5513 23.9086 14.5513C18.5891 14.5513 14.2769 18.8635 14.2769 24.183C14.2769 29.5025 18.5891 33.8147 23.9086 33.8147Z"/></g><g id="Vector_5"><path fill="#BBE4ED" fill-rule="evenodd" d="M28.0782 25.5748C27.4961 27.3198 25.8491 28.5778 23.9084 28.5778C21.4813 28.5778 19.5137 26.6102 19.5137 24.1831C19.5137 21.756 21.4813 19.7884 23.9084 19.7884C25.7667 19.7884 27.3556 20.9418 27.9983 22.5717H20.2461V25.5748H28.0782ZM28.0782 25.5748C28.2241 25.1374 28.3031 24.6695 28.3031 24.1831C28.3031 23.6143 28.195 23.0707 27.9983 22.5717H35.6276C36.1769 21.473 37.3122 20.704 38.6307 20.704C40.4984 20.704 41.9999 22.2055 41.9999 24.0732C41.9999 25.941 40.4984 27.4425 38.6307 27.4425C37.3122 27.4425 36.1769 26.6734 35.6276 25.5748H28.0782Z" clip-rule="evenodd"/><path fill="#BBE4ED" d="M20.2461 22.5717V25.5748H28.0782C28.2241 25.1374 28.3031 24.6695 28.3031 24.1831C28.3031 23.6143 28.195 23.0707 27.9983 22.5717H20.2461Z"/></g></g></g><defs><filter id="filter0_dd_94_19202" width="15.7925" height="9.00305" x="24.582" y="19.5718" color-interpolation-filters="sRGB" filterUnits="userSpaceOnUse"><feFlood flood-opacity="0" result="BackgroundImageFix"/><feColorMatrix in="SourceAlpha" result="hardAlpha" values="0 0 0 0 0 0 0 0 0 0 0 0 0 0 0 0 0 0 127 0"/><feOffset dy="1"/><feGaussianBlur stdDeviation="1"/><feComposite in2="hardAlpha" operator="out"/><feColorMatrix values="0 0 0 0 0 0 0 0 0 0 0 0 0 0 0 0 0 0 0.2 0"/><feBlend in2="BackgroundImageFix" result="effect1_dropShadow_94_19202"/><feColorMatrix in="SourceAlpha" result="hardAlpha" values="0 0 0 0 0 0 0 0 0 0 0 0 0 0 0 0 0 0 127 0"/><feOffset dy="-1"/><feGaussianBlur stdDeviation="1"/><feComposite in2="hardAlpha" operator="out"/><feColorMatrix values="0 0 0 0 0 0 0 0 0 0 0 0 0 0 0 0 0 0 0.2 0"/><feBlend in2="effect1_dropShadow_94_19202" result="effect2_dropShadow_94_19202"/><feBlend in="SourceGraphic" in2="effect2_dropShadow_94_19202" result="shape"/></filter><filter id="filter1_d_94_19202" width="25.2637" height="25.2635" x="13.2769" y="13.5513" color-interpolation-filters="sRGB" filterUnits="userSpaceOnUse"><feFlood flood-opacity="0" result="BackgroundImageFix"/><feColorMatrix in="SourceAlpha" result="hardAlpha" values="0 0 0 0 0 0 0 0 0 0 0 0 0 0 0 0 0 0 127 0"/><feOffset dx="2" dy="2"/><feGaussianBlur stdDeviation="1.5"/><feComposite in2="hardAlpha" operator="out"/><feColorMatrix values="0 0 0 0 0 0 0 0 0 0 0 0 0 0 0 0 0 0 0.2 0"/><feBlend in2="BackgroundImageFix" result="effect1_dropShadow_94_19202"/><feBlend in="SourceGraphic" in2="effect1_dropShadow_94_19202" result="shape"/></filter><linearGradient id="paint0_linear_94_19202" x1="8.06986" x2="38.5996" y1="24.0182" y2="24.0182" gradientUnits="userSpaceOnUse"><stop offset="0.00558659" stop-color="#009AA7"/><stop offset="1" stop-color="#007580"/></linearGradient></defs></svg>

<svg xmlns="http://www.w3.org/2000/svg" fill="none" aria-hidden="true" viewBox="0 0 48 48"><path fill="url(#a)" d="M23.322 39.272c8.435 0 15.272-6.838 15.272-15.272 0-8.434-6.837-15.271-15.272-15.271-8.434 0-15.271 6.837-15.271 15.271 0 8.434 6.837 15.272 15.271 15.272Z"/><g fill="#BBE4ED"><path d="M27.278 9.68a3.36 3.36 0 0 0-3.37-3.369 3.36 3.36 0 0 0-1.501 6.373v15.381h3.003V12.684a3.364 3.364 0 0 0 1.868-3.003Z"/><path d="M20.54 38.32a3.36 3.36 0 0 0 3.368 3.369 3.36 3.36 0 0 0 1.502-6.373V19.935h-3.003v15.381a3.363 3.363 0 0 0-1.868 3.003Z"/><path d="M9.37 20.704A3.36 3.36 0 0 0 6 24.074a3.36 3.36 0 0 0 6.372 1.5h15.382v-3.002H12.372a3.363 3.363 0 0 0-3.003-1.868Z"/></g><g filter="url(#b)"><path fill="#00949B" d="M38.374 22.572H26.582v3.003h11.792v-3.003Z"/></g><g filter="url(#c)"><path fill="#61C8D8" d="M23.909 33.815a9.632 9.632 0 0 0 9.631-9.632 9.632 9.632 0 0 0-9.631-9.632 9.632 9.632 0 0 0-9.632 9.632 9.632 9.632 0 0 0 9.632 9.632Z"/></g><g fill="#BBE4ED"><path fill-rule="evenodd" d="M28.078 25.575a4.397 4.397 0 0 1-8.564-1.392 4.395 4.395 0 0 1 8.484-1.611h-7.752v3.003h7.832Zm0 0a4.39 4.39 0 0 0 .225-1.392c0-.569-.108-1.112-.305-1.611h7.63A3.36 3.36 0 0 1 42 24.074a3.36 3.36 0 0 1-6.372 1.5h-7.55Z" clip-rule="evenodd"/><path d="M20.246 22.572v3.003h7.832a4.39 4.39 0 0 0 .225-1.392c0-.569-.108-1.112-.305-1.611h-7.752Z"/></g><defs><filter id="b" width="15.793" height="9.003" x="24.582" y="19.572" color-interpolation-filters="sRGB" filterUnits="userSpaceOnUse"><feFlood flood-opacity="0" result="BackgroundImageFix"/><feColorMatrix in="SourceAlpha" result="hardAlpha" values="0 0 0 0 0 0 0 0 0 0 0 0 0 0 0 0 0 0 127 0"/><feOffset dy="1"/><feGaussianBlur stdDeviation="1"/><feComposite in2="hardAlpha" operator="out"/><feColorMatrix values="0 0 0 0 0 0 0 0 0 0 0 0 0 0 0 0 0 0 0.2 0"/><feBlend in2="BackgroundImageFix" result="effect1_dropShadow_94_19202"/><feColorMatrix in="SourceAlpha" result="hardAlpha" values="0 0 0 0 0 0 0 0 0 0 0 0 0 0 0 0 0 0 127 0"/><feOffset dy="-1"/><feGaussianBlur stdDeviation="1"/><feComposite in2="hardAlpha" operator="out"/><feColorMatrix values="0 0 0 0 0 0 0 0 0 0 0 0 0 0 0 0 0 0 0.2 0"/><feBlend in2="effect1_dropShadow_94_19202" result="effect2_dropShadow_94_19202"/><feBlend in="SourceGraphic" in2="effect2_dropShadow_94_19202" result="shape"/></filter><filter id="c" width="25.264" height="25.264" x="13.277" y="13.551" color-interpolation-filters="sRGB" filterUnits="userSpaceOnUse"><feFlood flood-opacity="0" result="BackgroundImageFix"/><feColorMatrix in="SourceAlpha" result="hardAlpha" values="0 0 0 0 0 0 0 0 0 0 0 0 0 0 0 0 0 0 127 0"/><feOffset dx="2" dy="2"/><feGaussianBlur stdDeviation="1.5"/><feComposite in2="hardAlpha" operator="out"/><feColorMatrix values="0 0 0 0 0 0 0 0 0 0 0 0 0 0 0 0 0 0 0.2 0"/><feBlend in2="BackgroundImageFix" result="effect1_dropShadow_94_19202"/><feBlend in="SourceGraphic" in2="effect1_dropShadow_94_19202" result="shape"/></filter><linearGradient id="a" x1="8.07" x2="38.6" y1="24.018" y2="24.018" gradientUnits="userSpaceOnUse"><stop offset=".006" stop-color="#009AA7"/><stop offset="1" stop-color="#007580"/></linearGradient></defs></svg>
